X: 1
T: Bill Harte's
R: jig
M: 6/8
L: 1/8
K: Dmix
DED A2A|BAG ABA|DED A2A|BAG EGE|
DED A2A|BAG ABc|d2B cBA|1 BAG EGE:|2 BAG E2D||
|:d2B cBA|BAG ABc|d2B cBA|BAG E2D|
dcB cBA|BAG ABc|ded c2A|1 BAG E2D:|2 BAG EGE||


Tune 2788	Setting 16010

